!!! OTL: Berkowitz90
!!! Chapter: 1
!!! Section: I
!!! Page: 23
!!! Mode: 
!!! Encoder: DJB
**kern
*staff1
*I"Piano
=1-
*clefC3
*k[b-e-]
*B-:
*M3/4
4.B-/
8d\
4f\
=2
4b-\
4a\
4g\
=3
4f\
4e-\
4d\
=4
2c\
4c\
=5
4d\
4e-\
4f\
=6
2c\
4c\
=7
4d\
4e-\
4f\
=8
2.c\
=9
4r
4c\
4d\
=10
4f\
4b-\
4a\
=11
4.g\
8f\
4e-\
=12
!!linebreak:original
4d\
4c\
4B-/
=13
4r
4f\
4f\
=14
4F/
4G/
4A/
=15
2B-/
4d\
=16
2.B-/
==
*-
